!!!!SEGMENT: pl-kk--kk-i-1--049-002_szadek-tomasz--offitium-in-melodiam-motetae-pisneme-et-in-terra.krn
!!!cenid: 15xx:766
!!!COM: Szadek, Tomasz
!!!COM-rismID: pe30020506
!!!CDT: ~1550-1612
!!!CNT: Polish
!!!OPR: Offitium in melodiam motetae Pisneme
!!!OTL: Et in terra
!!!OMV: 002
!!!PDT:
!!!AGN:
!!!SMS-siglum: PL-Kk
!!!SMS-shelfmark: Kk.I.1
!!!SMS-shelfwork: 049-002 M
!!!SMS-variant:
!!!SMS-altvar:
!!!NIFC-rismSourceID: 300258003
!!!NIFC-islandoraID: pl-kk:1
!!!URL-pdf-islandora: https://repozytorium.nifc.pl/islandora/object/pl-kk%3A1/datastream/PDF/view
!!!URL-scan: https://polish.musicsources.pl/pl/lokalizacje/galeria/rekopisy/5736 @EN{Scan on Polish Music Sources Website} @PL{Skany w portalu Dziedzictwo Muzyki Polskiej w otwartym dostępie}
!!!ONB-nifc: UWAGA: Cantus (s. 152v-160r, skan 0155-0162), Altus (s. 148r-156r, skan 0341-0349), Tenor (s. 127v-136r, skan 0518-0526), Bassus (s. 139v-146v, skan 0702-0709). Części Mszy: 1. Kyrie, 2. Et in terra, 3. Patrem, 4. Sanctus, 5. Agnus Dei
!!!AIN: 1 alto 1 bass 1 soprn 1 tenor
**kern	**text	**mod-text	**kern	**text	**mod-text	**kern	**text	**mod-text	**kern	**text	**mod-text
*part4	*part4	*part4	*part3	*part3	*part3	*part2	*part2	*part2	*part1	*part1	*part1
*staff4	*staff4	*staff4	*staff3	*staff3	*staff3	*staff2	*staff2	*staff2	*staff1	*staff1	*staff1
*I"BASSVS	*	*	*I"TENOR	*	*	*I"ALTVS	*	*	*I"CANTVS	*	*
*mI"Basso	*	*	*mI"Tenore	*	*	*mI"Alto	*	*	*mI"Soprano	*	*
*I'B	*	*	*I'T	*	*	*I'A	*	*	*I'S	*	*
*Ibass	*	*	*Itenor	*	*	*Ialto	*	*	*Isoprn	*	*
*ICvox	*	*	*ICvox	*	*	*ICvox	*	*	*ICvox	*	*
*clefF4	*	*	*clefC3	*	*	*clefC3	*	*	*clefC2	*	*
*	*	*	*mclefGv2	*	*	*mclefG2	*	*	*mclefG2	*	*
*k[b-]	*	*	*k[b-]	*	*	*k[b-]	*	*	*k[b-]	*	*
*F:	*	*	*F:	*	*	*F:	*	*	*F:	*	*
*M2/1	*	*	*M2/1	*	*	*M2/1	*	*	*M2/1	*	*
*met(C)	*	*	*met(C)	*	*	*met(C)	*	*	*met(C)	*	*
*mmet(c|)	*	*	*mmet(c|)	*	*	*mmet(c|)	*	*	*mmet(c|)	*	*
=1-	=1-	=1-	=1-	=1-	=1-	=1-	=1-	=1-	=1-	=1-	=1-
!	!	!	!	!	!	!	!	!	!LO:SIC:v:t=powtórzony bemol	!	!
00r	.	.	0r	.	.	1d\	ET	Et	0r	.	.
.	.	.	.	.	.	2g\	in	in	.	.	.
.	.	.	.	.	.	1g\	ter-	ter-	.	.	.
=2-	=2-	=2-	=2-	=2-	=2-	=2-	=2-	=2-	=2-	=2-	=2-
.	.	.	1G/	Et	Et	.	.	.	1r	.	.
.	.	.	.	.	.	2g\	-ra	-ra	.	.	.
.	.	.	2d\	in	in	2f\	pax	pax	2r	.	.
.	.	.	1d\	ter-	ter-	1f\	ho-	ho-	2d/	ET	Et
=3-	=3-	=3-	=3-	=3-	=3-	=3-	=3-	=3-	=3-	=3-	=3-
0r	.	.	.	.	.	.	.	.	2a\	in	in
.	.	.	2d\	-ra	-ra	2f\	-(mi-	-mi-	1a\	ter-	ter-
.	.	.	2c/	pax	pax	2e\	-n)i-	-ni-	.	.	.
.	.	.	2G/	ho-	ho-	4d\	-bus	-bus	2g\	-ra	-ra
.	.	.	.	.	.	4e\	.	.	.	.	.
=4-	=4-	=4-	=4-	=4-	=4-	=4-	=4-	=4-	=4-	=4-	=4-
1r	.	.	2d\	-mi-	-mi-	4f\	.	[ho-	2b-\	pax	pax
.	.	.	.	.	.	4d\	.	.	.	.	.
.	.	.	2e-X\	-ni-	-ni-	1g\	.	-mi-	2cc\	ho-	ho-
1D\	ET	Et	1d\	-bus	-bus	.	.	.	2.a\	-(mi-	-mi-
!	!	!	!	!	!	!LO:SIC:s=2f#i	!	!	!	!	!
.	.	.	.	.	.	2f\	.	-ni-	.	.	.
.	.	.	.	.	.	.	.	.	4a\	-n)i-	-ni-
=5-	=5-	=5-	=5-	=5-	=5-	=5-	=5-	=5-	=5-	=5-	=5-
2G\	in	in	2r	.	.	1g\	.	-bus]	2g\	-bus	-bus
*	*	*	*	*ij	*ij	*	*	*	*	*ij	*ij
1G\	ter-	ter-	2G/	et	pax	.	.	.	1b-\	pax	pax
.	.	.	2d\	in	ho-	2r	.	.	.	.	.
*	*	*	*custos:c	*	*	*	*	*	*	*	*
*	*	*	*	*	*	*	*ij	*ij	*	*	*
2B-\	-ra	-ra	2d\	ter-	-mi-	2f\	et	pax	2b-\	ho-	ho-
!	!	!	!LO:LB:g=original	!	!	!	!	!	!	!	!
=6-	=6-	=6-	=6-	=6-	=6-	=6-	=6-	=6-	=6-	=6-	=6-
2.F\	pax	pax	4c/	-ra	.	2f\	in	ho-	4a\	-(mi-	-mi-
.	.	.	4B-/	.	.	.	.	.	4g\	.	.
.	.	.	4c/	.	.	2.f\	ter-	-mi-	4a\	.	.
4BB-/	ho-	ho-	4d/	.	.	.	.	.	4b-\	.	.
2F\	-mi-	-mi-	2c/	pax	.	.	.	.	2a\	.	.
.	.	.	.	.	.	4e\	.	.	.	.	.
*	*	*	*	*	*	*custos:c	*	*	*	*	*
2G\	-ni-	-ni-	2B-/	ho-	-ni-	1d\	-ra	.	2g\	-n)i-	-ni-
!	!	!	!	!	!	!LO:PB:g=original	!	!	!	!	!
=7-	=7-	=7-	=7-	=7-	=7-	=7-	=7-	=7-	=7-	=7-	=7-
*	*	*	*	*	*	*	*	*	*custos:d	*	*
2D/	-bus	-bus	2.A/	-mi-	-bus	.	.	.	0f\	-bus	-bus
*	*ij	*ij	*	*	*	*	*	*	*	*Xij	*Xij
4F\	ho-	ho-	.	.	.	2c/	pax	.	.	.	.
4E\	.	.	4G/	.	.	.	.	.	.	.	.
4D/	-mi-	.	4F/	.	.	2B-/	ho-	-ni-	.	.	.
4C/	.	.	4E/	.	.	.	.	.	.	.	.
4BB-/	.	-mi-	1F/	.	.	1A/	-(mi-	-bus	.	.	.
*	*	*	*	*	*	*	*	*Xij	*	*	*
4AA/	.	.	.	.	.	.	.	.	.	.	.
=8-	=8-	=8-	=8-	=8-	=8-	=8-	=8-	=8-	=8-	=8-	=8-
1BB-/	-ni-	-ni-	.	.	.	.	.	.	1d/	bo-	bo-
.	.	.	4E/	-ni-	.	2G/	-n)i-	bo-	.	.	.
.	.	.	4D/	.	.	.	.	.	.	.	.
1AA/	-bus	-bus	2A/	-bus	.	2A/	-bus	-nae	4c/	-nae	.
*	*Xij	*Xij	*	*Xij	*Xij	*	*Xij	*Xij	*	*	*
.	.	.	.	.	.	.	.	.	4d/	.	.
.	.	.	2A/	bo-	bo-	2c/	bo-	vo-	4e/	.	.
.	.	.	.	.	.	.	.	.	4f/	.	.
=9-	=9-	=9-	=9-	=9-	=9-	=9-	=9-	=9-	=9-	=9-	=9-
0r	.	.	2G/	-nae	-nae	2d\	-nae	-lun-	2g\	vo-	.
.	.	.	2A/	vo-	vo-	2.f\	vo-	-ta-	2c/	-lun-	-nae
.	.	.	2B-/	-lun-	-lun-	.	.	.	1d/	-ta-	vo-
.	.	.	.	.	.	4e\	.	.	.	.	.
!	!	!	!	!	!	!LO:TX:t=P:problem=kreska pseudotaktowa niepełna - notowana jak oddech	!	!	!	!	!
!	!	!	!	!	!	!LO:TX:t=P:problem=kreska pseudotaktowa	!	!	!	!	!
.	.	.	2B-/	-ta-	-ta-	1d\	-lun-	.	.	.	.
=10-	=10-	=10-	=10-	=10-	=10-	=10-	=10-	=10-	=10-	=10-	=10-
2r	.	.	1A/	-tis	-tis	.	.	.	1e\	-tis	-lun-
!	!	!	!	!	!	!LO:SIC:s=2c#i	!	!	!	!	!
2A\	bo-	bo-	.	.	.	2c\	-ta-	-tis	.	.	.
*	*	*	*	*ij	*ij	*	*	*	*	*ij	*
2.G\	-nae	-nae	2.d\	vo-	vo-	2d\	-tis	vo-	2.g\	bo-	-ta-
.	.	.	.	.	.	4B-/	vo-	-lun-	.	.	.
!	!	!	!	!	!	!LO:SIC:s=4ci	!	!	!	!	!
4A\	vo-	vo-	4c/	.	.	4c/	.	.	4f\	-nae	.
=11-	=11-	=11-	=11-	=11-	=11-	=11-	=11-	=11-	=11-	=11-	=11-
2B-\	-lu(n)-	-lun-	4B-/	.	-lun-	4d\	.	.	2f\	vo-	.
.	.	.	4c/	.	.	4e\	.	.	.	.	.
*custos:A	*	*	*	*	*	*	*	*	*	*	*
2B-\	-ta-	-ta-	4d/	.	.	4f\	.	.	1d/	-lun-	.
*	*	*	*custos:f	*	*	*	*	*	*	*	*
.	.	.	4eny/	.	.	4g\	.	.	.	.	.
!LO:LB:g=original	!	!	!LO:PB:g=original	!	!	!	!	!	!	!	!
1A\	-tis	-tis.	2f\	-lun-	.	2a\	-lun-	.	.	.	.
.	.	.	2e\	-ta-	-ta-	2a\	-ta-	-ta-	2c/	-ta-	.
=12-	=12-	=12-	=12-	=12-	=12-	=12-	=12-	=12-	=12-	=12-	=12-
1D\	Lau-	Lau-	2d\	-tis	-tis.	2f\	-tis	-tis.	2d/	-tis	-tis.
*	*	*	*	*Xij	*Xij	*	*	*	*	*Xij	*Xij
.	.	.	2A/	Lau-	Lau-	2d\	Lau-	Lau-	2a\	lau-	Lau-
2.G\	-da-	-da-	2.B-/	-da-	-da-	2.d\	-da-	-da-	2.g\	-da-	-da-
*	*	*	*	*	*	*custos:g	*	*	*	*	*
4G\	-mus	-mus	4B-/	-mus	-mus	4d\	-m(us)	-mus	4g\	-m(us)	-mus
!	!	!	!	!	!	!LO:LB:g=original	!	!	!	!	!
=13-	=13-	=13-	=13-	=13-	=13-	=13-	=13-	=13-	=13-	=13-	=13-
2G\	te	te.	2B-/	te	te.	2g\	te	te.	1b-\	te	te.
2B-\	b(e)-	Be-	2d\	be-	Be-	1f\	be-	Be-	.	.	.
2F\	-n(e)-	-ne-	2c/	-ne-	-ne-	.	.	.	2a\	be-	Be-
*	*	*	*	*	*	*	*	*	*custos:a	*	*
2G\	-di-	-di-	2B-/	-di-	-di-	2d\	-ne-	-ne-	2b-\	-ne-	-ne-
!	!	!	!	!	!	!	!	!	!LO:LB;g=original	!	!
=14-	=14-	=14-	=14-	=14-	=14-	=14-	=14-	=14-	=14-	=14-	=14-
!	!	!	!	!	!	!LO:SIC:s=2e-i	!	!	!	!	!
2C/	-ci-	-ci-	4c/	-ci-	-ci-	2e\	-di-	-di-	4a\	-di-	-di-
.	.	.	4B-/	.	.	.	.	.	4g\	.	.
2E-X\	-mus	-mus	4A/	-mus	.	2c\	-ci-	-ci-	2.g\	-ci-	-ci-
.	.	.	4G/	.	.	.	.	.	.	.	.
1D\	te	te.	1A/	te	-mus	1d\	-m(us)	-mus	.	.	.
!	!	!	!	!	!	!	!	!	!LO:SIC:s=8f#iL	!	!
.	.	.	.	.	.	.	.	.	8f/L	.	.
.	.	.	.	.	.	.	.	.	8e/J	.	.
!	!	!	!	!	!	!	!	!	!LO:SIC:s=2f#i	!	!
.	.	.	.	.	.	.	.	.	2f\	-mus	-mus
=15-	=15-	=15-	=15-	=15-	=15-	=15-	=15-	=15-	=15-	=15-	=15-
2r	.	.	2G/	.	te.	2d\	te	te.	2g\	te	te.
2D/	A-	A-	2F/	a-	A-	2A/	a-	A-	2d/	a-	A-
4BB-/	-do-	-do-	1B-/	-do-	-do-	1d\	-do-	-do-	2f\	-do-	-do-
4C/	.	.	.	.	.	.	.	.	.	.	.
4D/	.	.	.	.	.	.	.	.	2.f\	-ra-	-ra-
4Eny/	.	.	.	.	.	.	.	.	.	.	.
=16-	=16-	=16-	=16-	=16-	=16-	=16-	=16-	=16-	=16-	=16-	=16-
2F\	-ra-	-ra-	2A/	-ra-	-ra-	2c/	-ra-	-ra-	.	.	.
.	.	.	.	.	.	.	.	.	4e/	.	.
2G\	-m(us)	-mus	2G/	-mus	-mus	2B-/	-mus	-mus	4d/	.	-mus
.	.	.	.	.	.	.	.	.	4c/	-mus	.
2D/	te	te.	2F/	te	te.	2A/	te	te.	2d/	te	te.
2D/	glo-	Glo-	2A/	glo-	Glo-	2d\	Glo-	Glo-	2a\	Glo-	Glo-
=17-	=17-	=17-	=17-	=17-	=17-	=17-	=17-	=17-	=17-	=17-	=17-
4BB-/	-ri-	-ri-	1d\	-ri-	-ri-	2f\	-ri-	-ri-	1b-\	-ri-	-ri-
4C/	.	.	.	.	.	.	.	.	.	.	.
4D/	.	.	.	.	.	2.f\	-fi-	-fi-	.	.	.
*custos:F	*	*	*	*	*	*	*	*	*	*	*
4E/	.	.	.	.	.	.	.	.	.	.	.
!LO:LB:g=original	!	!	!	!	!	!	!	!	!	!	!
2F\	-fi-	-fi-	2c/	-fi-	-fi-	.	.	.	2a\	-fi-	-fi-
.	.	.	.	.	.	4e\	-ca-	.	.	.	.
*	*	*	*custos:A	*	*	*	*	*	*	*	*
2G\	-ca-	-ca-	2B-/	-ca-	-ca-	4d\	-mus	-ca-	1g\	-ca-	-ca-
.	.	.	.	.	.	4c\	.	.	.	.	.
!	!	!	!LO:LB:g=original	!	!	!	!	!	!	!	!
=18-	=18-	=18-	=18-	=18-	=18-	=18-	=18-	=18-	=18-	=18-	=18-
1D\	-mus	-mus	1A/	-mus	-mus	1d\	.	-mus	.	.	.
!	!	!	!	!	!	!	!	!	!LO:SIC:s=2f#i	!	!
.	.	.	.	.	.	.	.	.	2f\	-mus	-mus
1GG/	te	te.	1G/	te	te.	1d\	te	te.	1g\	te	te.
=19-	=19-	=19-	=19-	=19-	=19-	=19-	=19-	=19-	=19-	=19-	=19-
00r	.	.	2.d\	Gra-	Gra-	2.f\	Gra-	Gra-	2.a\	Gra-	Gra-
*	*	*	*	*	*	*custos:e	*	*	*	*	*
.	.	.	4d\	-(ti)-	-ti-	4f\	-ti-	-ti-	4a\	-ti-	-ti-
!	!	!	!	!	!	!LO:LB:g=original	!	!	!	!	!
.	.	.	2A/	-as	-as	2e\	-as	-as	2a\	-as	-as
*	*	*	*	*	*	*	*	*	*custos:f#	*	*
.	.	.	2c/	a-	a-	2.e\	a-	a-	2g\	a-	a-
=20-	=20-	=20-	=20-	=20-	=20-	=20-	=20-	=20-	=20-	=20-	=20-
.	.	.	2d\	-gi-	-gi-	.	.	.	2f#X\	-gi-	-gi-
.	.	.	.	.	.	4d\	-gi-	-gi-	.	.	.
.	.	.	2G/	-mus	-mus	1d\	-mus	-mus	2g\	-mus	-mus
.	.	.	1A/	ti-	ti-	.	.	.	1e\	ti-	ti-
!	!	!	!	!	!	!LO:SIC:s=2c#i	!	!	!	!	!
.	.	.	.	.	.	2c\	ti-	ti-	.	.	.
=21-	=21-	=21-	=21-	=21-	=21-	=21-	=21-	=21-	=21-	=21-	=21-
2.G\	Gra-	Gra-	2B-/	-bi	-bi	2d\	-bi	-bi	2d/	-bi	-bi
*	*	*	*	*	*	*	*ij	*ij	*	*ij	*ij
.	.	.	2.d\	Gra-	[a-	2g\	a-	a-	2.b-\	a-	a-
4G\	-ti-	-ti-	.	.	.	.	.	.	.	.	.
2D/	-as	-as	.	.	.	2.f\	.	-gi-	.	.	.
.	.	.	4d\	-ti-	-gi-	.	.	.	4a\	.	.
2F\	a-	a-	2c/	-as	-mus	.	.	.	2.a\	-gi-	-gi-
.	.	.	.	.	.	4e\	-gi-	.	.	.	.
=22-	=22-	=22-	=22-	=22-	=22-	=22-	=22-	=22-	=22-	=22-	=22-
2G\	-gi-	-gi-	2B-/	.	ti-	2d\	-mu	.	.	.	.
.	.	.	.	.	.	.	.	.	4g\	.	.
2C/	-mus	-mus	4c/	.	.	2e-X\	.	-mus	1g\	-mus	-mus
.	.	.	4B-/	.	.	.	.	.	.	.	.
1D\	ti-	ti-	4A/	.	.	1d\	ti-	ti-	.	.	.
.	.	.	4G/	.	.	.	.	.	.	.	.
!	!	!	!	!	!	!	!	!	!LO:SIC:s=2f#i	!	!
.	.	.	2A/	.	.	.	.	.	2f\	ti-	ti-
=23-	=23-	=23-	=23-	=23-	=23-	=23-	=23-	=23-	=23-	=23-	=23-
2GG/	-bi	-bi	2G/	.	-bi]	2d\	-bi	-bi	2g\	-bi	-bi
*	*	*	*	*	*	*	*Xij	*Xij	*	*Xij	*Xij
2G\	prop-	prop-	2B-/	prop-	pro-	2g\	prop-	pro-	2d/	prop-	pro-
2G\	-ter	-ter	2B-/	-ter	-pter	2g\	-ter	-pter	2d/	-ter	-pter
1F\	ma-	ma-	1c\	ma-	ma-	1a\	.	ma-	1f\	.	ma-
=24-	=24-	=24-	=24-	=24-	=24-	=24-	=24-	=24-	=24-	=24-	=24-
*	*	*	*custos:B-	*	*	*	*	*	*	*	*
2G\	-gna(m)	-gnam	2B-/	-gna(m)	-gnam	2g\	ma-	gnam	2d/	ma-	-gnam
!	!	!	!LO:LB:g=original	!	!	!	!	!	!	!	!
2G\	glo-	glo-	2B-/	glo-	glo-	4d\	-gna(m)	glo-	2g\	-gna(m)	glo-
.	.	.	.	.	.	4eny\	.	.	.	.	.
2D/	-ri-	-ri-	4A/	-ri-	.	4f\	glo-	.	2f\	glo-	.
.	.	.	4B-/	.	.	4g\	.	.	.	.	.
=25-	=25-	=25-	=25-	=25-	=25-	=25-	=25-	=25-	=25-	=25-	=25-
!	!	!	!	!	!	!	!	!	!LO:SIC:s=2e-i	!	!
2C/	-a(m)	-am	4c/	.	-ri-	4a\	-ri-	-ri-	2e\	-ri-	-ri-
*	*	*	*	*	*	*custos:g	*	*	*	*	*
.	.	.	4B-/	.	.	4g\	.	.	.	.	.
*custos:D	*	*	*	*	*	*	*	*	*	*	*
!	!	!	!	!	!	!LO:LB:g=original	!	!	!	!	!
2E-X\	tu-	tu-	4A/	.	-am	1g\	-am	-am	2c/	-a(m)	-am
.	.	.	4G/	-am	.	.	.	.	.	.	.
!LO:PB:g=original	!	!	!	!	!	!	!	!	!	!	!
1D\	-am	-am	1A/	tu-	tu-	.	.	.	2.d/	tu-	tu-
!	!	!	!	!	!	!LO:SIC:s=2f#i	!	!	!	!	!
.	.	.	.	.	.	2f\	tu-	tu-	.	.	.
.	.	.	.	.	.	.	.	.	4c/	.	.
=26-	=26-	=26-	=26-	=26-	=26-	=26-	=26-	=26-	=26-	=26-	=26-
2.G\	.	[tu-	2G/	-am	-am	1g\	-a(m)	-am	4B-/	.	.
.	.	.	.	.	.	.	.	.	4A/	.	.
*	*	*	*	*	*	*	*	*	*custos:G	*	*
.	.	.	2.d\	Do-	Do-	.	.	.	2B-/	.	.
4F\	.	.	.	.	.	.	.	.	.	.	.
1Eny\	.	.	.	.	.	2r	.	.	2G/	-am	-am.
.	.	.	4d\	-mi-	-mi-	.	.	.	.	.	.
*	*	*	*	*	*	*	*ij	*ij	*	*	*
.	.	.	2c\	-ne	-ne	2G/	ma-	ma-	2.g\	Do-	Do-
=27-	=27-	=27-	=27-	=27-	=27-	=27-	=27-	=27-	=27-	=27-	=27-
1D\	.	-am].	1d\	de-	De-	2B-/	.	-gnam	.	.	.
.	.	.	.	.	.	.	.	.	4g\	-mi-	-mi-
.	.	.	.	.	.	2A/	-gna(m)	glo-	2f\	-ne	-ne
2r	.	.	1G/	-us	-us	2.d\	glo-	-ri-	1g\	de-	De-
2.G\	Do-	Do-	.	.	.	.	.	.	.	.	.
.	.	.	.	.	.	4c/	-ri-	.	.	.	.
=28-	=28-	=28-	=28-	=28-	=28-	=28-	=28-	=28-	=28-	=28-	=28-
.	.	.	2r	.	.	2B-/	-am	-am	2d/	-us	-us
4G\	-mi-	-mi-	.	.	.	.	.	.	.	.	.
*	*	*	*	*ij	*ij	*	*	*	*	*	*
2F\	-ne	-ne	2.c/	Do-	Do-	2A/	tu-	tu-	2f/	rex	Rex
1G\	de-	De-	.	.	.	2G/	-a(m)	-am.	2e-X/	.	cae-
*	*	*	*	*	*	*	*Xij	*Xij	*	*	*
.	.	.	4c/	-mi-	-mi-	.	.	.	.	.	.
.	.	.	2B-/	-ne	-ne	2.g\	Do-	Do-	2d/	c(oe)-	.
=29-	=29-	=29-	=29-	=29-	=29-	=29-	=29-	=29-	=29-	=29-	=29-
2C/	-us	-us	2c/	de-	De-	.	.	.	2e-X/	-le-	-le-
.	.	.	.	.	.	4g\	-mi-	-mi-	.	.	.
2D/	rex	Rex	2A/	-us	-us	2f\	-ne	-ne	4d/	.	.
*	*	*	*	*Xij	*Xij	*	*	*	*	*	*
.	.	.	.	.	.	.	.	.	4c/	.	.
2E-X/	c(oe)-	cae-	2G/	rex	Rex	1g\	de-	De-	2B-/	.	.
2C/	-leſ-	-leſ-	1G/	coe-	cae-	.	.	.	2c/	-stis	-stis
=30-	=30-	=30-	=30-	=30-	=30-	=30-	=30-	=30-	=30-	=30-	=30-
1D\	-tis	-tis	.	.	.	2d\	-us	-us	4B-/	.	De-
.	.	.	.	.	.	.	.	.	4A/	.	.
.	.	.	2F/	-leſ-	-leſ-	2f\	rex	Rex	1d/	de-	.
1r	.	.	2G/	-tis	-tis	2e\	coe-	cae-	.	.	.
*	*	*	*custos:B-	*	*	*custos:d	*	*	*	*	*
!	!	!	!	!	!	!LO:TX:t=P:problem=kreska pseudotaktowa	!	!	!	!	!
.	.	.	2A/	de-	De-	2e\	-le-	-le-	2c/	-us	-us
!	!	!	!LO:LB:g=original	!	!	!LO:PB:g=original	!	!	!	!	!
=31-	=31-	=31-	=31-	=31-	=31-	=31-	=31-	=31-	=31-	=31-	=31-
2r	.	.	2.B-/	-us	-us	0d\	-ſtis	-ſtis	2d/	pa-	Pa-
1G\	de-	De-	.	.	.	.	.	.	2G/	-ter	-ter
.	.	.	4c/	.	.	.	.	.	.	.	.
.	.	.	4d\	.	.	.	.	.	2B-/	o(m-	om-
.	.	.	4e\	.	.	.	.	.	.	.	.
*	*	*	*	*	*	*	*	*	*custos:G	*	*
2F\	-us	-us	2f\	rex	Rex	.	.	.	2A/	-n)i-	.
=32-	=32-	=32-	=32-	=32-	=32-	=32-	=32-	=32-	=32-	=32-	=32-
2G\	p(a-	Pa-	2d\	coe-	cae-	2r	.	.	2B-/	.	-ni-
2C/	-te)r	-ter	2e-X\	-leſ-	-leſ-	1g\	De-	De-	4c/	-po-	-po-
.	.	.	.	.	.	.	.	.	4B-/	.	.
1D\	om-	om-	1d\	-tis	-tis	.	.	.	4A/	.	.
.	.	.	.	.	.	.	.	.	4G/	.	.
.	.	.	.	.	.	2f\	-us	-us	2A/	.	.
=33-	=33-	=33-	=33-	=33-	=33-	=33-	=33-	=33-	=33-	=33-	=33-
2E-X/	-ni-	-ni-	2r	.	.	2g\	p(a-	Pa-	1G/	-tens	-tens
*custos:G	*	*	*	*	*	*	*	*	*	*	*
2C/	-po-	-po-	1c\	De-	De-	2c/	-te)r	-ter	.	.	.
!LO:LB:g=original	!	!	!	!	!	!	!	!	!	!	!
1G\	-tens	-tens	.	.	.	1d\	o(m-	om-	2r	.	.
*	*	*	*	*	*	*	*	*	*	*ij	*ij
!	!	!	!LO:SIC:s=2Bi	!	!	!	!	!	!	!	!
.	.	.	2B-/	-us	-us	.	.	.	1g\	de-	De-
=34-	=34-	=34-	=34-	=34-	=34-	=34-	=34-	=34-	=34-	=34-	=34-
2r	.	.	2c/	pa-	Pa-	2e-X\	-n)i-	-ni-	.	.	.
*	*ij	*ij	*	*	*	*	*	*	*	*	*
2D/	om-	om-	2A/	-ter	-ter	2d\	-po-	-po-	2f\	-us	-us
2G\	-ni-	-ni-	2B-/	om-	om-	2d\	-tens	-tens	2g\	pa-	Pa-
!	!	!	!	!	!	!	!	!	!LO:TX:t=P:problem=kreska pseudotaktowa niepełna - notowana jak oddech	!	!
!	!	!	!	!	!	!LO:TX:t=P:problem=kreska pseudotaktowa	!	!	!LO:TX:t=P:problem=kreska pseudotaktowa	!	!
4F\	-po-	-po-	4A/	-ni-	-ni-	1g\	.	[De-	2c/	-ter	-ter
!	!	!	!LO:TX:t=P:problem=kreska pseudotaktowa	!	!	!	!	!	!	!	!
4Eny\	.	.	4G/	.	.	.	.	.	.	.	.
=35-	=35-	=35-	=35-	=35-	=35-	=35-	=35-	=35-	=35-	=35-	=35-
1D\	-tens	-tens	1A/	-po-	-po-	.	.	.	2.d/	o(m-	om-
.	.	.	.	.	.	2f\	.	-us	.	.	.
.	.	.	.	.	.	.	.	.	4c/	.	.
2r	.	.	1G/	-tens	-tens	2g\	.	Pa-	4B-/	-n)i-	.
.	.	.	.	.	.	.	.	.	4A/	.	.
!	!	!	!	!	!	!	!	!	!LO:TX:t=P:problem=kreska pseudotaktowa	!	!
1G\	de-	De-	.	.	.	2d\	.	-ter	2B-/	.	-ni-
=36-	=36-	=36-	=36-	=36-	=36-	=36-	=36-	=36-	=36-	=36-	=36-
*	*	*	*	*ij	*ij	*	*	*	*	*	*
!	!	!	!	!	!	!LO:TX:t=P:problem=kreska pseudotaktowa niepełna - notowana jak oddech	!	!	!	!	!
.	.	.	1c\	De-	De-	2eny\	.	om-	1A/	-po-	-po-
2F\	-us	-us	.	.	.	2f\	.	.	.	.	.
2G\	p(a-	Pa-	2B-/	-us	-us	2d\	.	.	1G/	-tens	-tens
*	*	*	*	*	*	*	*	*	*	*Xij	*Xij
2C/	-te)r	-ter	2c/	pa-	Pa-	2e-X\	.	.	.	.	.
=37-	=37-	=37-	=37-	=37-	=37-	=37-	=37-	=37-	=37-	=37-	=37-
2D/	om-	om-	2A/	-ter	-ter	2d\	.	-ni-	2r	.	.
*	*	*	*custos:B-	*	*	*	*	*	*	*	*
!LO:SIC:s=2E-i	!	!	!	!	!	!	!	!	!	!	!
2E\	-ni-	-ni-	2G/	om-	om-	2c/	.	.	1g\	om-	om-
*	*	*	*	*	*	*custos:B	*	*	*	*	*
!	!	!	!LO:PB:g=original	!	!	!	!	!	!	!	!
1D\	-po-	-po-	2B-/	-ni-	-ni-	1d\	.	po-	.	.	.
.	.	.	2A/	-po-	-po-	.	.	.	2f\	-ni-	-ni-
!	!	!	!	!	!	!LO:LB:g=original	!	!	!	!	!
=38-	=38-	=38-	=38-	=38-	=38-	=38-	=38-	=38-	=38-	=38-	=38-
*	*	*	*	*	*	*	*	*	*custos:g	*	*
!	!	!	!	!	!	!LO:MO:mod=!null:null	!	!	!	!	!
!	!	!	!	!	!	!LO:N:acc=#	!	!	!	!	!
!	!	!	!	!	!	!LO:TX:t=P:problem=# below	!	!	!	!	!
0G\	-tens./	-tens.	2G/	-tens	-tens	1.Bn/	Do-	-tens.]	1g\	-po-	-po-
*	*Xij	*Xij	*	*Xij	*Xij	*	*	*	*	*	*
.	.	.	2d\	do-	Do-	.	.	.	.	.	.
!	!	!	!	!	!	!	!	!	!LO:PB:g=original	!	!
.	.	.	2d\	-mi-	-mi-	.	.	.	1g\	-tens	-tens.
.	.	.	2d\	-ne	-ne	2d\	-mi-	Do-	.	.	.
=39-	=39-	=39-	=39-	=39-	=39-	=39-	=39-	=39-	=39-	=39-	=39-
0r	.	.	2.f\	fi-	Fi-	2d\	-ne	-mi-	2r	.	.
.	.	.	.	.	.	2d\	fi-	-ne	2a\	Do-	Do-
.	.	.	4eny\	-li	.	.	.	.	.	.	.
.	.	.	2d\	.	.	2f\	-li	Fi-	2a\	-mi-	-mi-
.	.	.	2c\	v-	-li	2eny\	v-	-li	2a\	-ne	-ne
=40-	=40-	=40-	=40-	=40-	=40-	=40-	=40-	=40-	=40-	=40-	=40-
2r	.	.	2d\	-ni-	u-	2f\	-ni-	u-	2.b-\	fi-	Fi-
2G\	Do-	Do-	4G/	-ge-	-ni-	2g\	-ge-	-ni-	.	.	.
.	.	.	4A/	.	.	.	.	.	4a\	-li	.
2G\	-mi-	-mi-	4B-/	.	-ge-	1d\	-ni-	-ge-	1g\	.	-li
.	.	.	4c/	.	.	.	.	.	.	.	.
2G\	-ne	-ne	4d\	.	.	.	.	.	.	.	.
!	!	!	!LO:SIC:s=4e-i	!	!	!	!	!	!	!	!
.	.	.	4e\	.	.	.	.	.	.	.	.
=41-	=41-	=41-	=41-	=41-	=41-	=41-	=41-	=41-	=41-	=41-	=41-
2.B-\	fi-	Fi-	2.d\	-ni-	-ni-	2B-y/	-te	-ni-	2f\	V-	u-
.	.	.	.	.	.	2G/	.	-te	4g\	.	.
4A\	-li	.	4c/	-te	.	.	.	.	4a\	.	.
*	*	*	*	*	*	*	*ij	*ij	*	*	*
2G\	v-	-li	2B-/	.	-te	2d\	v-	u-	2b-\	-ni-	.
*custos:G	*	*	*	*	*	*	*	*	*	*	*
*	*	*	*	*ij	*ij	*	*	*	*	*	*
2F\	.	u-	2c/	v-	u-	2f\	-ni-	-ni-	2.a\	-ge-	-ni-
!LO:LB:g=original	!	!	!	!	!	!	!	!	!	!	!
=42-	=42-	=42-	=42-	=42-	=42-	=42-	=42-	=42-	=42-	=42-	=42-
2G\	-ni-	-ni-	2B-/	-ni-	-ni-	2d\	-ge-	-ge-	.	.	.
.	.	.	.	.	.	.	.	.	4g\	.	.
2E\	-ge-	-ge-	4A/	-ge-	-ge-	2c\	-ni-	-ni-	1g\	.	-ge-
.	.	.	4G/	.	.	.	.	.	.	.	.
1D\	-ni-	-ni-	1A/	-ni-	-ni-	0d\	-te	-te	.	.	.
*	*	*	*	*	*	*	*Xij	*Xij	*	*	*
!	!	!	!	!	!	!	!	!	!LO:SIC:s=2f#i	!	!
.	.	.	.	.	.	.	.	.	2f\	-ni-	-ni-
=43-	=43-	=43-	=43-	=43-	=43-	=43-	=43-	=43-	=43-	=43-	=43-
*	*	*	*custos:A	*	*	*	*	*	*	*	*
1G\	-te	-te	1B-/	.	-te	.	.	.	1g\	-te	-te
*	*	*	*	*	*Xij	*	*	*	*	*	*
!	!	!	!LO:LB:g=original	!	!	!	!	!	!	!	!
!	!	!	!	!	!	!	!	!	!LO:TX:t=P:problem=# below	!	!
1D\	Je-	Je-	1A/	-te	Je-	2.d\	Je-	Je-	1f#X\	Ie-	Je-
*	*	*	*	*Xij	*	*	*	*	*	*	*
.	.	.	.	.	.	4c\	-ſu	.	.	.	.
=44-	=44-	=44-	=44-	=44-	=44-	=44-	=44-	=44-	=44-	=44-	=44-
2G\	-ſu	-ſu	2B-/	Je-	-su	4d\	.	.	2g\	-ſu	-ſu
*	*	*	*	*	*	*custos:f	*	*	*	*	*
.	.	.	.	.	.	4e\	.	.	.	.	.
!	!	!	!	!	!	!LO:LB:g=original	!	!	!	!	!
1F\	Chr(i-	Chri-	4A/	.	Chri-	1f\	.	.	2.a\	Chri-	Chri-
.	.	.	4B-/	-ſu	.	.	.	.	.	.	.
.	.	.	4c/	.	.	.	.	.	.	.	.
.	.	.	4B-/	.	.	.	.	.	4g\	.	.
!LO:SIC:s=2E-i	!	!	!	!	!	!	!	!	!	!	!
2E\	-st)e	.	4A/	.	.	2c/	.	-su	1g\	.	.
.	.	.	4G/	.	.	.	.	.	.	.	.
=45-	=45-	=45-	=45-	=45-	=45-	=45-	=45-	=45-	=45-	=45-	=45-
1D\	.	-ste	1A/	chr(i-	.	1d\	.	Chri-	.	.	.
!	!	!	!	!	!	!	!	!	!LO:SIC:s=2f#i	!	!
.	.	.	.	.	.	.	.	.	2fny\	-ſte.	.
*	*	*	*	*	*	*	*	*	*custos:b-	*	*
*	*ij	*ij	*	*	*	*	*	*	*	*	*
!LO:SIC:s=2.E-i	!	!	!LO:SIC:s=[1G	!	!	!	!	!	!LO:SIC:s=[1g	!	!
2.E\	Je-	Je-	[1Gl;	-st)e	-ste.	1B-/	Chri-	-ste	[1gl;<	.	-ste.
4D/	.	.	.	.	.	.	.	.	.	.	.
=46-	=46-	=46-	=46-	=46-	=46-	=46-	=46-	=46-	=46-	=46-	=46-
2C/	.	.	0G_	.	.	2c/	-ste	[Je-	0g_	.	.
!LO:SIC:s=2BBni	!	!	!	!	!	!	!	!	!	!	!
2BB-/	-ſu	-ſu	.	.	.	2d\	.	su	.	.	.
!	!	!	!	!	!	!LO:SIC:s=1e-i	!	!	!	!	!
1C/	Chr(i-	Chri-	.	.	.	1e\	.	Chri-	.	.	.
=47-	=47-	=47-	=47-	=47-	=47-	=47-	=47-	=47-	=47-	=47-	=47-
!	!	!	!LO:SIC:s=0G;]	!	!	!	!	!	!LO:SIC:s=0g;]	!	!
0GG/;l	-st)e	-ste.	0G/]	.	.	0d\;<l	.	-ste.]	0g\]	.	.
*	*Xij	*Xij	*	*	*	*	*	*	*	*	*
!	!	!	!	!	!	!	!	!	!LO:LB:g=original	!	!
=48||	=48||	=48||	=48||	=48||	=48||	=48||	=48||	=48||	=48||	=48||	=48||
00r	.	.	0r	.	.	2.g\	Do-	Do-	1r	.	.
.	.	.	.	.	.	4g\	-mi-	-mi-	.	.	.
.	.	.	.	.	.	2g\	-ne	-ne	2.b-\	Do-	Do-
.	.	.	.	.	.	2g\	de-	De-	.	.	.
.	.	.	.	.	.	.	.	.	4b-\	-mi-	-mi-
=49-	=49-	=49-	=49-	=49-	=49-	=49-	=49-	=49-	=49-	=49-	=49-
.	.	.	2.d\	Do-	Do-	2d\	-us	-us	2.a\	.	-ne
.	.	.	.	.	.	4f\	a-	A-	.	.	.
.	.	.	4d\	-mi-	-mi-	4e\	.	.	4g\	-ne	.
.	.	.	2d\	-ne	-ne	4f\	.	.	4f\	.	.
.	.	.	.	.	.	4g\	.	.	4eny\	.	.
.	.	.	2d\	de-	De-	2.a\	.	.	2f/	.	.
=50-	=50-	=50-	=50-	=50-	=50-	=50-	=50-	=50-	=50-	=50-	=50-
0r	.	.	2A/	-us	-us	.	.	.	2e/	.	De-
.	.	.	.	.	.	4g\	.	.	.	.	.
.	.	.	2c/	a-	A-	1g\	-gnus	.	2e/	de-	-us
.	.	.	1d\	-gnus	-gnus	.	.	.	2d/	-us	A-
.	.	.	.	.	.	2f\	de-	-gnus	2a\	a-	-gnus
=51-	=51-	=51-	=51-	=51-	=51-	=51-	=51-	=51-	=51-	=51-	=51-
*	*	*	*	*	*	*custos:g	*	*	*	*	*
2.G\	Do-	Do-	2d\	de-	De-	1g\	-i	De-	1.b-\	-gnus	De-
.	.	.	2B-/	-i	-i	.	.	.	.	.	.
4G\	-mi-	-mi-	.	.	.	.	.	.	.	.	.
!	!	!	!	!	!	!LO:LB:g=original	!	!	!	!	!
*	*	*	*	*	*	*	*ij	*	*	*	*
2G\	-ne	-ne	2e-X\	fi-	Fi-	1g\	Do-	-i	.	.	.
2G\	de-	De-	2.d\	.	-li-	.	.	.	2g\	de-	.
=52-	=52-	=52-	=52-	=52-	=52-	=52-	=52-	=52-	=52-	=52-	=52-
*	*	*	*	*	*	*	*	*ij	*	*	*
2D/	-us	-us	.	.	.	1f\	-mi-	A-	1a\	-i	-i
.	.	.	4c/	-li-	.	.	.	.	.	.	.
*custos:G	*	*	*	*	*	*	*	*	*	*	*
2F\	a-	A-	1c\	-us	-us	.	.	.	.	.	.
!LO:LB:g=original	!	!	!	!	!	!	!	!	!	!	!
*	*	*	*	*	*	*	*	*	*	*ij	*ij
1G\	-nus	-nus	.	.	.	1d\	-ne	-gnus	2.g\	Do-	Do-
*	*	*	*custos:c	*	*	*	*	*	*	*	*
!	!	!	!LO:SIC:s=2Bi	!	!	!	!	!	!	!	!
.	.	.	2B-/	pa-	Pa-	.	.	.	.	.	.
.	.	.	.	.	.	.	.	.	4g\	-mi-	-mi-
!	!	!	!LO:LB:g=original	!	!	!	!	!	!	!	!
=53-	=53-	=53-	=53-	=53-	=53-	=53-	=53-	=53-	=53-	=53-	=53-
1C/	de-	De-	1c\	-tris	-tris	4e\	de-	De-	2g\	 ne	 ne
.	.	.	.	.	.	4f\	.	.	.	.	.
.	.	.	.	.	.	4g\	.	.	2g\	de-	De-
.	.	.	.	.	.	4e\	.	.	.	.	.
*	*	*	*	*ij	*ij	*	*	*	*	*	*
2D/	-i	-i	1A/	a-	A-	4f\	-us	.	2d/	-us	-us
.	.	.	.	.	.	4g\	.	.	.	.	.
*	*	*	*	*	*	*	*	*	*custos:g	*	*
2D/	fi-	Fi-	.	.	.	2.a\	a-	.	2f\	a-	A-
!	!	!	!	!	!	!	!	!	!LO:LB:g=original	!	!
=54-	=54-	=54-	=54-	=54-	=54-	=54-	=54-	=54-	=54-	=54-	=54-
2C/	-li-	-li-	4c/	.	-gnus	.	.	.	2g\	-gnus	-gnus
.	.	.	4B-/	.	.	4g\	.	.	.	.	.
!LO:SIC:s=2E-i	!	!	!	!	!	!	!	!	!	!	!
2E/	-us	-us	4A/	-gnus	.	1g\	-gnus	.	2c/	de-	De-
.	.	.	4G/	.	.	.	.	.	.	.	.
1D\	pa-	Pa-	1A/	de-	De-	.	.	.	2d/	-i	-i
*	*	*	*	*	*	*	*	*	*	*Xij	*Xij
!	!	!	!	!	!	!LO:SIC:s=2f#i	!	!	!	!	!
.	.	.	.	.	.	2f\	de-	.	2d/	fi-	Fi-
=55-	=55-	=55-	=55-	=55-	=55-	=55-	=55-	=55-	=55-	=55-	=55-
2G\	-tris	-tris	2B-/	-i	-i	1g\	-i	-i	2B-/	-li-	-li-
*	*	*	*	*Xij	*Xij	*	*Xij	*Xij	*	*	*
2C/	.	[Fi-	1G/	fi-	Fi-	.	.	.	2e-X/	-us	-us
1E-X\	.	-li-	.	.	.	2r	.	.	1d/	pa-	Pa-
.	.	.	2F/	-li-	-li-	2d\	fi-	Fi-	.	.	.
=56-	=56-	=56-	=56-	=56-	=56-	=56-	=56-	=56-	=56-	=56-	=56-
2E-\	.	-us	2.G/	-us	-us	2B-/	-li-	-li-	2G/	-tris	-tris
*	*	*	*	*	*	*	*	*	*	*ij	*ij
2C/	.	.	.	.	.	2e-X\	-us	-us	2.g\	fi-	Fi-
.	.	.	4A/	.	.	.	.	.	.	.	.
*lig	*	*	*	*	*	*	*	*	*	*	*
1D\	.	Pa-	2B-/	p(at)-	Pa-	1d\	p(at)-	Pa-	.	.	.
.	.	.	.	.	.	.	.	.	8f\L	.	.
.	.	.	.	.	.	.	.	.	8e\J	.	.
.	.	.	2A/	-ris	-tris.	.	.	.	2f\	-li-	-li-
=57-	=57-	=57-	=57-	=57-	=57-	=57-	=57-	=57-	=57-	=57-	=57-
1E-\	.	.	2r	.	.	2G/	-ris	-tris	1g\	-us	-us
*	*	*	*	*	*	*	*ij	*ij	*	*	*
.	.	.	2G/	qui	Qui	1g\	fi-	Fi-	.	.	.
*Xlig	*	*	*	*	*	*	*	*	*	*	*
1D\	.	-tris.]	1d\	tol-	tol-	.	.	.	0a\	pa-	Pa-
.	.	.	.	.	.	4f\	-li-	-li-	.	.	.
*	*	*	*	*	*	*custos:f	*	*	*	*	*
.	.	.	.	.	.	4eny\	.	.	.	.	.
!	!	!	!	!	!	!LO:PB:g=original	!	!	!	!	!
=58-	=58-	=58-	=58-	=58-	=58-	=58-	=58-	=58-	=58-	=58-	=58-
!	!	!	!	!	!	!LO:MO:mod=*null:null	!	!	!	!	!
*	*	*	*	*	*	*stria6	*	*	*	*	*
!	!	!	!	!	!	!LO:TX:t=P:problem=od tego miejsca jest sześciolinia	!	!	!	!	!
2r	.	.	2d\	-lis	-lis	2f\	-us	-us	.	.	.
2D/	Qui	Qui	2A/	pec-	pec-	2f\	p(at)-	Pa-	.	.	.
1G\	tol-	tol-	1.B-/	-ca-	-ca-	2g\	-ris	-tris.	1d/	-tris	-tris.
*	*	*	*	*	*	*	*Xij	*Xij	*	*Xij	*Xij
.	.	.	.	.	.	2G/	Qui	Qui	.	.	.
=59-	=59-	=59-	=59-	=59-	=59-	=59-	=59-	=59-	=59-	=59-	=59-
2G\	-lis	-lis	.	.	.	1d\	tol-	tol-	2r	.	.
*custos:F	*	*	*	*	*	*	*	*	*	*	*
2D\	pec-	pec-	2A/	-ta	-ta	.	.	.	2d/	Qui	Qui
!LO:PB:g=original	!	!	!	!	!	!	!	!	!	!	!
2.F\	-ca-	-ca-	1A/	mun-	mun-	2d/	-lis	-lis	1a\	tol-	tol-
.	.	.	.	.	.	2c/	p(ec)-	pec-	.	.	.
4Eny/	-ta	.	.	.	.	.	.	.	.	.	.
=60-	=60-	=60-	=60-	=60-	=60-	=60-	=60-	=60-	=60-	=60-	=60-
2D/	.	.	2F/	-di	-di	2B-/	-c(a)-	-ca-	2d/	-lis	-lis
*	*	*	*custos:d	*	*	*	*	*	*custos:f	*	*
2C/	mun-	-ta	2A/	qui	qui	1A/	-ta	-ta	2e/	pec-	pec-
!	!	!	!LO:LB:g=original	!	!	!	!	!	!LO:LB:g=original	!	!
1BB-/	.	mun-	1d\	.	[tol-	.	.	.	2f/	-ca-	-ca-
.	.	.	.	.	.	2G/	mun-	mun-	2d/	-ta	-ta
=61-	=61-	=61-	=61-	=61-	=61-	=61-	=61-	=61-	=61-	=61-	=61-
1AA/	-di	-di	2c/	.	-lis	1A/	-di	-di	2f/	mun-	mun-
.	.	.	2c/	.	pec-	.	.	.	2e/	-di	-di
1A\	mi-	mi-	2c/	.	-ca-	2r	.	.	1e\	mi-	mi-
.	.	.	2A/	.	-ta	2c/	mi-	mi-	.	.	.
=62-	=62-	=62-	=62-	=62-	=62-	=62-	=62-	=62-	=62-	=62-	=62-
2G\	-ſe-	-ſe-	2B-/	.	mun-	2d/	-ſe-	-ſe-	2g\	-ſe-	-ſe-
2A\	-re-	-re-	2c/	.	-di	2.f\	-re-	-re-	2c/	-re-	-re-
2B-\	-re	-re	1r	.	.	.	.	.	1d/	-re	-re
.	.	.	.	.	.	4e\	-re	-re	.	.	.
2B-\	no-	no-	.	.	.	1d\	no-	no-	.	.	.
=63-	=63-	=63-	=63-	=63-	=63-	=63-	=63-	=63-	=63-	=63-	=63-
1A\	-bis	-bis	2r	.	.	.	.	.	2.e\	no-	no-
.	.	.	2A/	mi-	mi-	2c/	-bis	-bis	.	.	.
.	.	.	.	.	.	.	.	.	4f\	.	.
*	*	*	*	*	*	*	*	*ij	*	*	*
0r	.	.	2.G/	-ſe-	-ſe-	2d/	.	mi-	2g\	.	.
*	*	*	*	*	*	*	*ij	*	*	*	*
.	.	.	.	.	.	2g\	mi-	-se-	2.e/	.	.
.	.	.	4A/	-re-	-re-	.	.	.	.	.	.
=64-	=64-	=64-	=64-	=64-	=64-	=64-	=64-	=64-	=64-	=64-	=64-
.	.	.	2B-/	-re	-re	2f\	-ſe-	-re-	.	.	.
.	.	.	.	.	.	.	.	.	4d/	.	.
.	.	.	2B-/	no-	no-	4e\	-re-	.	1d/	.	.
*	*	*	*	*	*	*custos:e	*	*	*	*	*
.	.	.	.	.	.	4d\	.	.	.	.	.
!	!	!	!	!	!	!LO:LB:g=original	!	!	!	!	!
2r	.	.	1A/	-bis	-bis	1e\	-re	-re	.	.	.
*	*ij	*ij	*	*	*	*	*	*	*	*	*
!	!	!	!	!	!	!	!	!	!LO:SIC:s=2c#i	!	!
2A\	mi-	mi-	.	.	.	.	.	.	2c/	.	.
=65-	=65-	=65-	=65-	=65-	=65-	=65-	=65-	=65-	=65-	=65-	=65-
2G\	-ſe-	-ſe-	2r	.	.	2g\	no-	no-	2d/	-bis	-bis
*	*	*	*	*ij	*ij	*	*	*	*	*ij	*ij
2A\	.	-re-	2F/	mi-	mi-	4f\	.	.	2a\	mi-	mi-
.	.	.	.	.	.	4e\	.	.	.	.	.
2.B-\	-re-	-re	1.G/	-ſe-	-ſe-	2d/	-bis	-bis	2.g\	-ſe-	-ſe-
*	*	*	*	*	*	*	*Xij	*Xij	*	*	*
.	.	.	.	.	.	2d/	mi-	mi-	.	.	.
*	*	*	*	*	*	*	*	*	*custos:b-	*	*
4A\	.	.	.	.	.	.	.	.	4a\	.	-re
!	!	!	!	!	!	!	!	!	!LO:PB:g=original	!	!
=66-	=66-	=66-	=66-	=66-	=66-	=66-	=66-	=66-	=66-	=66-	=66-
2G\	.	.	.	.	.	2B-/	-ſe-	-ſe-	2b-\	-re-	-re
2F\	-re	no-	2A/	-re-	-re-	4c/	-re-	-re-	2.a\	-re	no-
.	.	.	.	.	.	4d/	-re	.	.	.	.
2E-X\	no-	.	2B-/	-re	-re	2e-X\	no-	-re	.	.	.
.	.	.	.	.	.	.	.	.	4g\	.	.
*custos:D	*	*	*	*	*	*	*	*	*	*	*
2C/	.	.	2c/	no-	no-	2e-\	-bis.	no-	1g\	no-	.
!LO:LB:g=original	!	!	!	!	!	!	!	!	!	!	!
=67-	=67-	=67-	=67-	=67-	=67-	=67-	=67-	=67-	=67-	=67-	=67-
1D\	-bis	-bis	1A/	-bis	-bis	1d\	.	-bis	.	.	.
*	*Xij	*Xij	*	*Xij	*Xij	*	*	*	*	*	*
!	!	!	!	!	!	!	!	!	!LO:SIC:s=2f#i	!	!
.	.	.	.	.	.	.	.	.	2f\	.	.
!	!	!	!	!	!	!	!	!	!LO:SIC:s=[1g	!	!
2r	.	.	2G/	mi-	.	1d\	.	[mi-	[1gl\;<	-bis	-bis.
*	*	*	*	*	*	*	*	*	*	*Xij	*Xij
*	*	*	*custos:G	*	*	*	*	*	*	*	*
!	!	!	!LO:MO:mod=!null:null	!	!	!	!	!	!	!	!
!	!	!	!LO:N:acc=#	!	!	!	!	!	!	!	!
!	!	!	!LO:TX:t=P:problem=# below	!	!	!	!	!	!	!	!
2G\	.	[mi-	2Bn/	-ſe-	mi-	.	.	.	.	.	.
!	!	!	!LO:PB:g=original	!	!	!	!	!	!	!	!
=68-	=68-	=68-	=68-	=68-	=68-	=68-	=68-	=68-	=68-	=68-	=68-
2C/	.	-se-	2G/	-re-	-se-	2c/	.	-se-	0g_	.	.
!	!	!	!LO:TX:t=P:problem=# below	!	!	!	!	!	!	!	!
!	!	!	!LO:MO:mod=!null:null	!	!	!	!	!	!	!	!
!	!	!	!LO:N:acc=#	!	!	!	!	!	!	!	!
2G\	.	-re-	2Bn/	-re	-re-	2d/	.	-re-	.	.	.
1C/	.	-re	1c\	no-	-re	1e-X\	.	-re	.	.	.
=69-	=69-	=69-	=69-	=69-	=69-	=69-	=69-	=69-	=69-	=69-	=69-
!	!	!	!	!	!	!	!	!	!LO:SIC:s=0g;]	!	!
1C/	.	no-	1c\	-bis	no-	1e-X\	.	no-	0g]	.	.
!	!	!	!LO:MO:mod=!LO&colon;N&colon;vis=0	!	!	!	!	!	!	!	!
!	!	!	!null	!	!	!	!	!	!	!	!
!	!	!	!LO:TX:t=P:problem=# below	!	!	!LO:MO:mod=!LO&colon;N&colon;vis=0	!	!	!	!	!
!LO:MO:mod=!LO&colon;N&colon;vis=0	!	!	!LO:MO:mod=!null:null	!	!	!null	!	!	!	!	!
!null	!	!	!LO:N:acc=#	!	!	!	!	!	!	!	!
1G 1GG\;	.	-bis.]	1Bn/;	.	-bis.	1d\;<l	.	-bis.]	.	.	.
=70||	=70||	=70||	=70||	=70||	=70||	=70||	=70||	=70||	=70||	=70||	=70||
00r	.	.	0r	.	.	1r	.	.	1d/	Qui	Qui
.	.	.	.	.	.	1G/	QVi	Qui	1g\	tol-	tol-
=71-	=71-	=71-	=71-	=71-	=71-	=71-	=71-	=71-	=71-	=71-	=71-
*	*	*	*	*	*	*custos:d	*	*	*	*	*
.	.	.	1G/	Qui	Qui	1d\	tol-	tol-	2g\	-lis	-lis
.	.	.	.	.	.	.	.	.	1b-\	pec-	pec-
!	!	!	!	!	!	!LO:LB:g=original	!	!	!	!	!
.	.	.	1d\	tol-	tol-	2d/	-lis	-lis	.	.	.
.	.	.	.	.	.	4f\	pec-	pec-	4a\	.	.
.	.	.	.	.	.	4eny\	.	.	4g\	.	.
=72-	=72-	=72-	=72-	=72-	=72-	=72-	=72-	=72-	=72-	=72-	=72-
0r	.	.	2d\	-lis	-lis	4f\	-ca-	-ca-	2.a\	-ca-	-ca-
.	.	.	.	.	.	4g\	.	.	.	.	.
.	.	.	2f\	pec-	pec-	2.a\	-ta	-ta	.	.	.
.	.	.	.	.	.	.	.	.	4b-\	.	-ta
.	.	.	2c\	-ca-	-ca-	.	.	.	4cc\	.	mun-
.	.	.	.	.	.	4g\	.	.	4b-\	.	.
.	.	.	2e-X\	-ta	-ta	1g\	mun-	.	4a\	-ta	.
.	.	.	.	.	.	.	.	.	4g\	.	.
=73-	=73-	=73-	=73-	=73-	=73-	=73-	=73-	=73-	=73-	=73-	=73-
1D\	Qui	Qui	1d\	m(un)-	mun-	.	.	.	1a\	mun-	.
!	!	!	!	!	!	!LO:SIC:s=2f#i	!	!	!	!	!
.	.	.	.	.	.	2f\	.	mun-	.	.	.
1G\	tol-	tol-	2B-/	-di	-di	2g\	-di	-di	1g\	-di	-di
*	*	*	*	*	*	*	*ij	*ij	*	*	*
.	.	.	4G/	pec-	pec-	2d\	pec-	pec-	.	.	.
.	.	.	4A/	.	.	.	.	.	.	.	.
=74-	=74-	=74-	=74-	=74-	=74-	=74-	=74-	=74-	=74-	=74-	=74-
2G\	-lis	-lis	4B-/	.	.	2g\	-ca-	-ca-	1r	.	.
.	.	.	4c/	.	.	.	.	.	.	.	.
2B-\	p(ec)-	pec-	2d\	-ca-	-ca-	2.f\	.	-ta	.	.	.
2F\	-c(a)-	-ca-	2c/	-ta	-ta	.	.	.	2r	.	.
.	.	.	.	.	.	4e\	-ta	.	.	.	.
2G\	-ta	-ta	1B-/	mun-	mun-	1d\	mun-	.	2d/	qui	qui
=75-	=75-	=75-	=75-	=75-	=75-	=75-	=75-	=75-	=75-	=75-	=75-
*	*	*	*	*	*	*	*	*	*custos:f	*	*
1E-X\	mun-	mun-	.	.	.	.	.	.	1g\	tol:	tol-
.	.	.	4A/	.	.	2c\	.	mun-	.	.	.
*	*	*	*custos:A	*	*	*	*	*	*	*	*
.	.	.	4G/	.	.	.	.	.	.	.	.
!	!	!	!LO:LB:g=original	!	!	!	!	!	!LO:LB:g=original	!	!
0D\	-di	-di	2A/	-di	-di	1d	-di	-di	2.f\	.	-[lis
*	*	*	*	*ij	*ij	*	*Xij	*Xij	*	*	*
.	.	.	2A/	pec-	qui	.	.	.	.	.	.
.	.	.	.	.	.	.	.	.	4e/	.	pec-
=76-	=76-	=76-	=76-	=76-	=76-	=76-	=76-	=76-	=76-	=76-	=76-
.	.	.	1d\	-ca-	tol-	2r	.	.	4f\	.	-ca-
.	.	.	.	.	.	.	.	.	4g\	.	.
.	.	.	.	.	.	2A/	pec-	pec-	4a\	.	.
.	.	.	.	.	.	.	.	.	4f\	.	.
0r	.	.	2d\	-ta	-lis	2B-/	-ca-	-ca-	2g\	.	-ta
.	.	.	2f\	.	pec-	1A/	-ta	-ta	2a\	.	pec-
=77-	=77-	=77-	=77-	=77-	=77-	=77-	=77-	=77-	=77-	=77-	=77-
.	.	.	2c\	mun-	-ca-	.	.	.	2f\	.	-ca-
.	.	.	2.d\	.	-ta	2G/	mun-	mun-	4g\	.	-ta
.	.	.	.	.	.	.	.	.	4f\	.	.
*	*	*	*	*	*	*custos:A	*	*	*	*	*
1AA/	ſu-	ſu-	.	.	.	1A/	-di	-di	4e/	.	.
!	!	!	!LO:SIC:s=8c#iL	!	!	!	!	!	!	!	!
.	.	.	8c/L	.	.	.	.	.	4d/	.	.
!	!	!	!LO:SIC:s=8BiJ	!	!	!	!	!	!	!	!
.	.	.	8B-/J	.	.	.	.	.	.	.	.
!	!	!	!LO:SIC:s=2c#i	!	!	!	!	!	!	!	!
.	.	.	2c/	.	mun-	.	.	.	2e/	.	mun-
!	!	!	!	!	!	!LO:LB:g=original	!	!	!	!	!
=78-	=78-	=78-	=78-	=78-	=78-	=78-	=78-	=78-	=78-	=78-	=78-
2.D/	-ſci-	-ſci-	2d,\	-di	-di	1A/,	ſu-	ſu-	2f/	.	-di]
*	*	*	*	*Xij	*Xij	*	*	*	*	*	*
.	.	.	2d\	ſu-	ſu-	.	.	.	2d/	ſu-	ſu-
*custos:D	*	*	*	*	*	*	*	*	*	*	*
4C/	.	.	.	.	.	.	.	.	.	.	.
!LO:LB:g=original	!	!	!	!	!	!	!	!	!	!	!
4D/	.	.	2d\	-ſci-	-ſci-	2f\	-sci-	-sci-	2a\	-sci-	-sci-
4Eny/	.	.	.	.	.	.	.	.	.	.	.
2F\	-pe	-pe	2c\	-pe	-pe	2f\	-pe	-pe	2a\	-pe	-pe
=79-	=79-	=79-	=79-	=79-	=79-	=79-	=79-	=79-	=79-	=79-	=79-
2.C/	de-	de-	2.c\	de-	de-	2.e\	de-	de-	4g\	de-	de-
.	.	.	.	.	.	.	.	.	4f\	-p(re)-	-pre-
.	.	.	.	.	.	.	.	.	4g\	-ca-	-ca-
4C/	-p(re)-	-pre-	4c/	-p(re)-	-pre-	4e\	-p(re)-	-pre-	4a\	-ti-	-ti-
2C/	-ca-	-ca-	2c/	-ca-	-ca-	2e\	-ca-	-ca-	2g\	-o-	-o-
2BB-/	-ti-	-ti-	2d/	-ti-	-ti-	2f\	-ti-	-ti-	2d/	-ne(m)	-nem
=80-	=80-	=80-	=80-	=80-	=80-	=80-	=80-	=80-	=80-	=80-	=80-
2C/	-o-	-o-	4c/	-o-	-o-	2e\	-o-	-o-	2e/	no-	no-
.	.	.	4B-/	.	.	.	.	.	.	.	.
*	*	*	*	*	*	*	*	*	*custos:e	*	*
2D/	-nem	-nem	4A/	-ne(m)	-nem	1d\	-ne(m)	-nem	2f/	.	.
.	.	.	4G/	.	.	.	.	.	.	.	.
!	!	!	!	!	!	!	!	!	!LO:LB:g=original	!	!
1AA/	nos-	no-	1A/	n(ost)-	no-	.	.	.	1e\	-ſtram	.
!	!	!	!	!	!	!LO:SIC:s=2c#i	!	!	!	!	!
.	.	.	.	.	.	2c/	n(ost)-	no-	.	.	.
=81-	=81-	=81-	=81-	=81-	=81-	=81-	=81-	=81-	=81-	=81-	=81-
1D\	-tram	-stram.	2F/	-ram	-stram.	2.d/	-ram	-stram.	1d/	.	-stram.
*	*	*	*custos:d	*	*	*	*	*	*	*	*
.	.	.	2A/	Qui	Qui	.	.	.	.	.	.
.	.	.	.	.	.	4c/	.	.	.	.	.
!	!	!	!LO:LB:g=original	!	!	!	!	!	!	!	!
2r	.	.	1d\	ſe-	ſe-	2B-/	.	.	1r	.	.
2D/	Qui	Qui	.	.	.	2A/	.	.	.	.	.
=82-	=82-	=82-	=82-	=82-	=82-	=82-	=82-	=82-	=82-	=82-	=82-
1G\	ſe-	ſe-	1d\	-des	-des	0B-/	.	.	2r	.	.
.	.	.	.	.	.	.	.	.	2d/	Qui	Qui
1G\	-des	-des	2r	.	.	.	.	.	1g\	ſe-	ſe-
.	.	.	2d\	ad	ad	.	.	.	.	.	.
=83-	=83-	=83-	=83-	=83-	=83-	=83-	=83-	=83-	=83-	=83-	=83-
2r	.	.	2e-X\	dex-	dex-	0r	.	.	1g\	-des	-des
2G\	ad	ad	1d\	-te-	-te-	.	.	.	.	.	.
2B-\	dex-	dex-	.	.	.	.	.	.	2r	.	.
2A\	-te-	-te-	2c/	-ra(m)	-ram	.	.	.	2a\	ad	ad
=84-	=84-	=84-	=84-	=84-	=84-	=84-	=84-	=84-	=84-	=84-	=84-
2G\	-ra(m)	-ram	2B-/	p(at)-	Pa-	2r	.	.	2b-\	dex-	dex-
2F\	p(at)-	Pa-	2c/	-ris	-tris	2A/	Qui	Qui	2a\	-te-	-te-
*	*	*	*	*ij	*ij	*	*	*	*	*	*
2G\	-ris	-tris	2G/	ad	ad	1d\	ſe-	ſe-	2g\	-ra(m)	-ram
*custos:G	*	*	*	*	*	*	*	*	*	*	*
2D/	ad	ad	2A/	dex-	dex-	.	.	.	2f\	p(at)-	Pa-
!LO:LB:g=original	!	!	!	!	!	!	!	!	!	!	!
=85-	=85-	=85-	=85-	=85-	=85-	=85-	=85-	=85-	=85-	=85-	=85-
1G\	dex-	dex-	1B-/	-te-	-te-	2d\	-des	-des	1g\	-ris	-tris
*	*	*	*	*	*	*custos:f	*	*	*	*	*
.	.	.	.	.	.	2d\	ad	ad	.	.	.
!	!	!	!	!	!	!LO:PB:g=original	!	!	!	!	!
*	*	*	*	*	*	*	*	*	*	*ij	*ij
4F\	-te-	-te-	2c/	-ra(m)	-ram	2f\	dex-	dex-	2a\	ad	qui
4G\	.	.	.	.	.	.	.	.	.	.	.
4A\	.	.	1c\	p(at)-	Pa-	2.e\	-te-	-te-	2a\	dex-	se-
4B-\	.	.	.	.	.	.	.	.	.	.	.
=86-	=86-	=86-	=86-	=86-	=86-	=86-	=86-	=86-	=86-	=86-	=86-
2c\	-ram	-ram	.	.	.	.	.	.	2g\	.	-des
.	.	.	.	.	.	4d/	.	.	.	.	.
2G\	p(at)-	Pa-	2B-/	-ris	-tris	1d\	-ram	-ram	2g\	-te-	ad
*	*	*	*	*Xij	*Xij	*	*	*	*	*	*
1A\	-ris	-tris	2r	.	.	.	.	.	1e\	-ra(m)	dex-
!	!	!	!	!	!	!LO:SIC:s=2c#i	!	!	!	!	!
.	.	.	2A/	mi-	mi-	2c/	p(at)-	Pa-	.	.	.
=87-	=87-	=87-	=87-	=87-	=87-	=87-	=87-	=87-	=87-	=87-	=87-
0r	.	.	2B-/	-ſe-	-ſe-	1d\	-ris	-tris	2d/	p(at)-	-te-
.	.	.	2G/	-re-	-re-	.	.	.	4g\	.	-ram
*	*	*	*	*	*	*	*	*	*custos:e	*	*
.	.	.	.	.	.	.	.	.	4f\	.	.
!	!	!	!	!	!	!	!	!	!LO:LB:g=original	!	!
.	.	.	2A/	-re	-re	1r	.	.	4e/	.	.
.	.	.	.	.	.	.	.	.	4d/	.	.
.	.	.	2B-/	no-	no-	.	.	.	1d/	.	.
=88-	=88-	=88-	=88-	=88-	=88-	=88-	=88-	=88-	=88-	=88-	=88-
*	*	*	*custos:A	*	*	*	*	*	*	*	*
1r	.	.	1A/	-bis	-bis	1e\	mi-	mi-	.	.	.
!	!	!	!	!	!	!	!	!	!LO:SIC:s=2c#i	!	!
.	.	.	.	.	.	.	.	.	2c/	.	Pa-
!	!	!	!LO:LB:g=original	!	!	!	!	!	!	!	!
!LO:TX:t=P:problem=kreska pseudotaktowa	!	!	!	!	!	!	!	!	!LO:TX:t=P:problem=kreska pseudotaktowa	!	!
*	*	*	*	*ij	*ij	*	*	*	*	*	*
1D\	mi-	mi-	2A/	mi-	mi-	2f\	-ſe-	-ſe-	1d/	-ris	-tris
*	*	*	*	*	*	*	*	*	*	*Xij	*Xij
!	!	!	!LO:TX:t=P:problem=kreska pseudotaktowa	!	!	!LO:TX:t=P:problem=kreska pseudotaktowa	!	!	!	!	!
.	.	.	2B-/	-ſe-	-ſe-	2d\	-re-	-re-	.	.	.
=89-	=89-	=89-	=89-	=89-	=89-	=89-	=89-	=89-	=89-	=89-	=89-
2E-X\	-ſe-	-ſe-	2G/	-re-	-re-	2g\	-re	-re	0r	.	.
2C/	-re-	-re-	1A/	.	-re	4f\	no-	no-	.	.	.
!	!	!	!	!	!	!LO:SIC:s=4e-i	!	!	!	!	!
.	.	.	.	.	.	4e\	.	.	.	.	.
2D/	-re	-re	.	.	.	2d\	-bis	.	.	.	.
!LO:TX:t=P:problem=kreska pseudotaktowa	!	!	!LO:TX:t=P:problem=kreska pseudotaktowa	!	!	!	!	!	!	!	!
*	*	*	*	*	*	*	*ij	*	*	*	*
2E-\	no-	no-	1G/	-re	no-	2c/	mi-	.	.	.	.
=90-	=90-	=90-	=90-	=90-	=90-	=90-	=90-	=90-	=90-	=90-	=90-
1D\	-bis	-bis	.	.	.	2d\	-ſe-	-bis	1A/	mi-	mi-
*	*	*	*	*	*	*	*	*ij	*	*	*
!	!	!	!LO:SIC:s=2F#i	!	!	!	!	!	!	!	!
.	.	.	2F/	no-	.	1d\	-re-	mi-	.	.	.
!LO:TX:t=P:problem=kreska pseudotaktowa	!	!	!LO:TX:t=P:problem=kreska pseudotaktowa	!	!	!	!	!	!	!	!
0r	.	.	1G/	-bis	-bis	.	.	.	2B-/	-ſe-	-ſe-
*	*	*	*	*Xij	*Xij	*	*	*	*	*	*
.	.	.	.	.	.	2e-X\	-re	-se-	2G/	-re-	-re-
=91-	=91-	=91-	=91-	=91-	=91-	=91-	=91-	=91-	=91-	=91-	=91-
.	.	.	2r	.	.	2c\	no-	re-	2A/	-re	-re
.	.	.	2d\	.	[mi-	1d\	.	-re	2B-/	no-	no-
!LO:TX:t=P:problem=kreska pseudotaktowa	!	!	!	!	!	!	!	!	!	!	!
*	*ij	*ij	*	*	*	*	*	*	*	*	*
1A\	mi-	mi-	2f\	.	-se-	.	.	.	2A/	.	.
!	!	!	!LO:TX:t=P:problem=kreska pseudotaktowa	!	!	!	!	!	!	!	!
.	.	.	2e\	.	-re-	2c/	.	no-	2a\	-bis	-bis
=92-	=92-	=92-	=92-	=92-	=92-	=92-	=92-	=92-	=92-	=92-	=92-
*	*	*	*	*	*	*	*	*	*	*ij	*ij
2B-\	.	-se-	2d\	.	-re	2d/	-bis	-bis	2f\	mi-	mi-
*	*	*	*	*	*	*	*Xij	*Xij	*	*	*
2G\	-ſe-	-re-	2.e\	.	no-	2r	.	.	2g\	-ſe-	-ſe-
2A\	.	-re	.	.	.	1r	.	.	2f\	-re-	-re-
.	.	.	4d/	.	.	.	.	.	.	.	.
!LO:TX:t=P:problem=kreska pseudotaktowa	!	!	!LO:TX:t=P:problem=kreska pseudotaktowa	!	!	!	!	!	!	!	!
2B-\	.	no-	1d\	.	.	.	.	.	4e/	.	.
.	.	.	.	.	.	.	.	.	4d/	.	.
=93-	=93-	=93-	=93-	=93-	=93-	=93-	=93-	=93-	=93-	=93-	=93-
*custos:D	*	*	*	*	*	*	*	*	*	*	*
1A\	.	-bis	.	.	.	2r	.	.	1e\	.	.
*	*	*	*	*	*	*custos:f	*	*	*	*	*
!	!	!	!LO:TX:t=P:problem=# above	!	!	!	!	!	!	!	!
.	.	.	2c#X\	.	.	2eny\	.	[mi-	.	.	.
!LO:PB:g=original	!	!	!	!	!	!LO:LB:g=original	!	!	!	!	!
!LO:TX:t=P:problem=kreska pseudotaktowa	!	!	!	!	!	!	!	!	!	!	!
1D\	-re-	mi-	2d\	.	-bis]	2f\	.	-se-	2d/	.	.
!	!	!	!LO:TX:t=P:problem=kreska pseudotaktowa	!	!	!	!	!	!	!	!
.	.	.	2A/	mi-	mi-	2.d\	.	-re-	2f\	-re	.
=94-	=94-	=94-	=94-	=94-	=94-	=94-	=94-	=94-	=94-	=94-	=94-
2G\	-re	-se-	2B-/	-ſe-	-ſe-	.	.	.	2g\	no-	-re
.	.	.	.	.	.	4e\	.	.	.	.	.
2F\	.	-re-	4A/	-re-	-re-	2f\	.	.	2.a\	.	no-
.	.	.	4B-/	-re	.	.	.	.	.	.	.
!	!	!	!	!	!	!LO:SIC:s=2e-i	!	!	!	!	!
2C/	no-	-re	4cny/	.	-re	2e\	.	-re	.	.	.
*	*	*	*	*	*	*	*	*	*custos:g	*	*
.	.	.	4B-/	.	.	.	.	.	4g\	.	.
!LO:SIC:s=2E-i	!	!	!	!	!	!	!	!	!LO:PB:g=original	!	!
!LO:TX:t=P:problem=kreska pseudotaktowa	!	!	!	!	!	!	!	!	!LO:TX:t=P:problem=od tego miejsca jest sześciolinia	!	!
2Eny/	.	.	4A/	.	.	2c/	.	no-	1g\	.	.
*	*	*	*custos:A	*	*	*	*	*	*	*	*
!	!	!	!LO:TX:t=P:problem=kreska pseudotaktowa	!	!	!	!	!	!	!	!
.	.	.	4G/	.	.	.	.	.	.	.	.
!	!	!	!LO:PB:g=original	!	!	!	!	!	!	!	!
=95-	=95-	=95-	=95-	=95-	=95-	=95-	=95-	=95-	=95-	=95-	=95-
1D\	.	no-	1A/	no-	no-	2d/	.	.	.	.	.
!	!	!	!	!	!	!	!	!	!LO:SIC:s=2f#i	!	!
.	.	.	.	.	.	2.d/	.	.	2f\	.	.
!LO:TX:t=P:problem=kreska pseudotaktowa	!	!	!	!	!	!	!	!	!	!	!
1G\	-bis	-bis.	2G/	-bis	-bis.	.	.	.	0g\	-bis	-bis.
*	*Xij	*Xij	*	*	*	*	*	*	*	*Xij	*Xij
.	.	.	.	.	.	4c/	.	.	.	.	.
!	!	!	!LO:TX:t=P:problem=kreska pseudotaktowa	!	!	!	!	!	!	!	!
.	.	.	1d\	quo-	Quo-	4B-/	.	.	.	.	.
.	.	.	.	.	.	4A/	.	.	.	.	.
=96-	=96-	=96-	=96-	=96-	=96-	=96-	=96-	=96-	=96-	=96-	=96-
2r	.	.	.	.	.	0B-/	.	-bis.]	.	.	.
1G\	Quo-	Quo-	2d\	-ni-	-ni-	.	.	.	.	.	.
!	!	!	!LO:TX:t=P:problem=kreska pseudotaktowa	!	!	!	!	!	!	!	!
.	.	.	1d\	-am	-am	.	.	.	2r	.	.
!LO:TX:t=P:problem=kreska pseudotaktowa	!	!	!	!	!	!	!	!	!	!	!
2G\	-ni-	-ni-	.	.	.	.	.	.	1g\	Quo-	Quo-
=97-	=97-	=97-	=97-	=97-	=97-	=97-	=97-	=97-	=97-	=97-	=97-
1G\	-a(m)	-am	2r	.	.	1r	.	.	.	.	.
.	.	.	2d\	tu	tu	.	.	.	2g\	-ni-	-ni-
2r	.	.	2c\	ſo-	ſo-	2r	.	.	1g\	-am	-am
!LO:TX:t=P:problem=kreska pseudotaktowa	!	!	!LO:TX:t=P:problem=kreska pseudotaktowa	!	!	!	!	!	!	!	!
2G\	tu	tu	2d\	-lus	-lus	1d\	Quo-	Quo-	.	.	.
=98-	=98-	=98-	=98-	=98-	=98-	=98-	=98-	=98-	=98-	=98-	=98-
2F\	ſo-	ſo-	2A/	ſanc-	ſan-	.	.	.	2r	.	.
2G\	-lus	-lus	2B-/	-tus	.	2d\	-ni-	-ni-	2g\	tu	tu
!	!	!	!	!	!	!	!	!	!LO:TX:t=P:problem=# below	!	!
2.D/	ſan-	ſan-	2A/	.	-ctus	1d\	-am	-am	2.f#X\	ſo-	ſo-
!	!	!	!LO:TX:t=P:problem=kreska pseudotaktowa	!	!	!	!	!	!	!	!
*	*	*	*	*ij	*ij	*	*	*	*	*	*
.	.	.	2d\	tu	tu	.	.	.	.	.	.
!LO:TX:t=P:problem=kreska pseudotaktowa	!	!	!	!	!	!	!	!	!	!	!
4E\	.	.	.	.	.	.	.	.	4g\	-lus	.
=99-	=99-	=99-	=99-	=99-	=99-	=99-	=99-	=99-	=99-	=99-	=99-
!LO:SIC:s=2F#i	!	!	!	!	!	!	!	!	!	!	!
2F\	.	.	2c\	ſo-	ſo-	2r	.	.	2a\	ſan-	-lus
2.G\	.	.	4B-/	.	-lus	2d/	tu	tu	2.b-\	-ctus	san-
.	.	.	4A/	.	.	.	.	.	.	.	.
.	.	.	4G/	-lus	.	2B-/	ſo-	ſo-	.	.	.
4F\	.	.	4A/	.	.	.	.	.	4a\	.	.
!	!	!	!LO:TX:t=P:problem=kreska pseudotaktowa	!	!	!	!	!	!	!	!
4E-X\	.	.	1B-/	ſanc-	.	1d\	-l(us)	-lus	4g\	.	.
!LO:TX:t=P:problem=kreska pseudotaktowa	!	!	!	!	!	!	!	!	!	!	!
4D/	.	.	.	.	.	.	.	.	4fny\	.	.
=100-	=100-	=100-	=100-	=100-	=100-	=100-	=100-	=100-	=100-	=100-	=100-
1E-\	.	.	.	.	.	.	.	.	1g\	.	.
.	.	.	4A/	.	san-	2c/	ſan-	ſan-	.	.	.
.	.	.	4G/	.	.	.	.	.	.	.	.
*custos:D	*	*	*	*	*	*	*	*	*	*	*
!	!	!	!	!	!	!	!	!	!LO:SIC:s=2f#i	!	!
2D/	-ctus	-ctus.	2A/	-tus	-ctus.	2d/	-ctus	-ctus.	2f\	.	-ctus.
*	*	*	*	*Xij	*Xij	*	*	*	*	*	*
*	*	*	*	*	*	*custos:f	*	*	*	*	*
!LO:LB:g=original	!	!	!	!	!	!	!	!	!	!	!
!LO:TX:t=P:problem=kreska pseudotaktowa	!	!	!LO:TX:t=P:problem=kreska pseudotaktowa	!	!	!	!	!	!	!	!
2D/	tu	Tu	2A/	tu	Tu	2d/	tu	Tu	2a\	tu	Tu
!	!	!	!	!	!	!LO:LB:g=original	!	!	!	!	!
=101-	=101-	=101-	=101-	=101-	=101-	=101-	=101-	=101-	=101-	=101-	=101-
*	*	*	*custos:c	*	*	*	*	*	*	*	*
4BB-/	ſo-	ſo-	1d\	ſo-	ſo-	1f\	ſo-	ſo-	1b-\	ſo-	ſo-
4C/	.	.	.	.	.	.	.	.	.	.	.
4D/	-lus	.	.	.	.	.	.	.	.	.	.
4Eny/	.	.	.	.	.	.	.	.	.	.	.
!	!	!	!LO:LB:g=original	!	!	!	!	!	!	!	!
2F\	d(o-	-lus	2c/	-lus	-lus	2f\	-lus	-lus	2a\	-lus	-lus
!LO:TX:t=P:problem=kreska pseudotaktowa	!	!	!LO:TX:t=P:problem=kreska pseudotaktowa	!	!	!	!	!	!	!	!
2G\	.	Do-	2B-/	d(o-	Do-	2d\	do-	Do-	2g\	do-	Do-
=102-	=102-	=102-	=102-	=102-	=102-	=102-	=102-	=102-	=102-	=102-	=102-
!	!	!	!	!	!	!	!	!	!LO:TX:t=P:problem=# above	!	!
2D/	-mi)-	-mi-	2A/	-mi)-	-mi-	2d\	-mi-	-mi-	2f#X\	-mi-	-mi-
*	*	*	*	*	*	*	*	*	*custos:a	*	*
2D/	-nus	-nus.	2A/	-nus	-nus.	2d\	-nus	-nus.	2f#\	-nus	-nus.
!	!	!	!	!	!	!	!	!	!LO:LB:g=original	!	!
!LO:TX:t=P:problem=kreska pseudotaktowa	!	!	!	!	!	!	!	!	!	!	!
1D\	tu	Tu	2r	.	.	2r	.	.	2r	.	.
!	!	!	!LO:TX:t=P:problem=kreska pseudotaktowa	!	!	!	!	!	!	!	!
.	.	.	2A/	tu	Tu	2d\	Tu	Tu	2a\	tu	Tu
=103-	=103-	=103-	=103-	=103-	=103-	=103-	=103-	=103-	=103-	=103-	=103-
4BB-/	ſo-	ſo-	1d\	ſo-	ſo-	2f\	ſo-	ſo-	1b-\	ſo-	ſo-
4C/	.	.	.	.	.	.	.	.	.	.	.
4D/	-lus	.	.	.	.	2.f\	-lus	-lus	.	.	.
4E/	.	.	.	.	.	.	.	.	.	.	.
!LO:TX:t=P:problem=kreska pseudotaktowa	!	!	!	!	!	!	!	!	!	!	!
1F\	.	-lus	2c\	-lus	-lus	.	.	.	2a\	-lus	-lus
.	.	.	.	.	.	4g\	.	.	.	.	.
!	!	!	!LO:TX:t=P:problem=kreska pseudotaktowa	!	!	!	!	!	!	!	!
.	.	.	2f\	al-	Al-	2a\	al-	Al-	2a\	al-	Al-
=104-	=104-	=104-	=104-	=104-	=104-	=104-	=104-	=104-	=104-	=104-	=104-
2G\	al-	Al-	4e\	-tiſ-	-tiſ-	4g\	-tiſ-	-tiſ-	1g\	-tiſ-	-tiſ-
.	.	.	4d\	.	.	4f\	.	.	.	.	.
2B-\	-tiſ-	-tiſ-	1d\	.	.	4e\	-si-	.	.	.	.
.	.	.	.	.	.	4d\	.	.	.	.	.
!LO:TX:t=P:problem=kreska pseudotaktowa	!	!	!	!	!	!	!	!	!	!	!
1A\	-si-	-si-	.	.	.	1e\	.	-si-	1a\	-si-	-si-
!	!	!	!LO:SIC:s=2c#i	!	!	!	!	!	!	!	!
!	!	!	!LO:TX:t=P:problem=kreska pseudotaktowa	!	!	!	!	!	!	!	!
.	.	.	2c\	-si-	-si-	.	.	.	.	.	.
=105-	=105-	=105-	=105-	=105-	=105-	=105-	=105-	=105-	=105-	=105-	=105-
1D\	-mus	-mus	1d\	-mus	-mus	1f\	-mus	-mus	1a\	-mus	-mus
!LO:TX:t=P:problem=kreska pseudotaktowa	!	!	!LO:TX:t=P:problem=kreska pseudotaktowa	!	!	!	!	!	!LO:TX:t=P:problem=# below	!	!
1D\	Je-	Je-	1A/	Je-	Je-	2.d\	Je-	Je-	1f#X\	Je-	Je-
.	.	.	.	.	.	4c/	.	.	.	.	.
=106-	=106-	=106-	=106-	=106-	=106-	=106-	=106-	=106-	=106-	=106-	=106-
2G\	-ſu	-ſu	2B-/	-ſu	-ſu	4d/	.	.	2g\	-ſu	-ſu
.	.	.	.	.	.	4e/	.	.	.	.	.
2F\	chri-	Chri-	4A/	chri-	Chri-	2f\	-ſu	.	2.a\	chri-	Chri-
.	.	.	4B-/	.	.	.	.	.	.	.	.
!	!	!	!	!	!	!LO:SIC:s=2e-i	!	!	!	!	!
2C/	-ste	.	4c/	.	.	2e\	.	.	.	.	.
.	.	.	4B-/	.	.	.	.	.	4g\	.	.
!LO:SIC:s=2E-i	!	!	!	!	!	!	!	!	!	!	!
!LO:TX:t=P:problem=kreska pseudotaktowa	!	!	!	!	!	!	!	!	!	!	!
2E\	.	.	4A/	.	.	2c/	chri-	.	1g\	-ste	.
!	!	!	!LO:TX:t=P:problem=kreska pseudotaktowa	!	!	!	!	!	!	!	!
.	.	.	4G/	.	.	.	.	.	.	.	.
=107-	=107-	=107-	=107-	=107-	=107-	=107-	=107-	=107-	=107-	=107-	=107-
1D\	.	.	1A/	.	.	2d/	.	-su	.	.	.
*	*	*	*	*	*	*custos:B-	*	*	*	*	*
!	!	!	!	!	!	!	!	!	!LO:SIC:s=2f#i	!	!
.	.	.	.	.	.	2d/	.	Chri-	2fny\	.	.
!	!	!	!	!	!	!LO:LB:g=original	!	!	!	!	!
!LO:TX:t=P:problem=kreska pseudotaktowa	!	!	!	!	!	!	!	!	!	!	!
1G\	.	.	2G/	-ste	-ste.	1B-/	.	-ste.	1g\	.	-ste.
*	*	*	*custos:A	*	*	*	*	*	*	*	*
!	!	!	!LO:TX:t=P:problem=kreska pseudotaktowa	!	!	!	!	!	!	!	!
.	.	.	2d\	Cum	Cum	.	.	.	.	.	.
!LO:LB:g=original	!	!	!LO:LB:g=original	!	!	!	!	!	!	!	!
=108-	=108-	=108-	=108-	=108-	=108-	=108-	=108-	=108-	=108-	=108-	=108-
1F\	.	-ste.	2A/	ſanc-	Sanc-	2c/	.	.	2r	.	.
.	.	.	2c/	-to	-to	2A/	-ste	.	2a\	Cum	Cum
2r	.	.	2d\	ſpi-	Spi-	2r	.	.	2f\	ſ(an)-	San-
!LO:TX:t=P:problem=kreska pseudotaktowa	!	!	!LO:TX:t=P:problem=kreska pseudotaktowa	!	!	!	!	!	!	!	!
2G\	Cum	Cum	2B-/	-ri-	-ri-	1d\	Cu(m)	Cum	2g\	-cto	-cto
=109-	=109-	=109-	=109-	=109-	=109-	=109-	=109-	=109-	=109-	=109-	=109-
2D/	ſ(an)-	San-	2A/	-tu	-tu	.	.	.	2f\	ſp(i-	Spi-
2F\	-cto	-cto	2A/	in	in	2c/	ſ(an)-	.	2f\	-ri-	-ri-
2G\	ſp(i-	Spi-	2B-/	glo-	glo-	2B-/	-cto	San-	2d/	-t)u	-tu
*	*	*	*	*	*	*	*	*	*custos:d	*	*
!LO:SIC:s=2E-i	!	!	!	!	!	!	!	!	!	!	!
!LO:TX:t=P:problem=kreska pseudotaktowa	!	!	!LO:TX:t=P:problem=kreska pseudotaktowa	!	!	!	!	!	!	!	!
2E\	-ri-	-ri-	2c/	-ri-	-ri-	2G/	ſpi-	-cto	2g\	cu(m)	cum
!	!	!	!	!	!	!	!	!	!LO:LB:g=original	!	!
=110-	=110-	=110-	=110-	=110-	=110-	=110-	=110-	=110-	=110-	=110-	=110-
2D/	-t)u	-tu	2d\	-a	-a	1A/	-ri-	Spi-	2d/	.	[San-
2D/	in	in	2d\	de-	De-	.	.	.	2f\	.	-cto
2E\	glo-	glo-	4c/	-i	.	2G/	-tu	-ri-	2g\	.	Spi-
.	.	.	4B-/	.	.	.	.	.	.	.	.
!LO:TX:t=P:problem=kreska pseudotaktowa	!	!	!	!	!	!	!	!	!	!	!
1F\	-ri-	-ri-	4A/	.	.	2A/	.	-tu	2c/	.	-ri-
!	!	!	!LO:TX:t=P:problem=kreska pseudotaktowa	!	!	!	!	!	!	!	!
.	.	.	4G/	.	.	.	.	.	.	.	.
=111-	=111-	=111-	=111-	=111-	=111-	=111-	=111-	=111-	=111-	=111-	=111-
.	.	.	2A/	pa-	.	1r	.	.	2d/	.	-tu]
2G\	-a	-a	2B-/	-tris	-i	.	.	.	2d/	in	in
*	*	*	*	*ij	*	*	*	*	*	*	*
2G\	de-	De-	2G/	in	Pa-	2r	.	.	2e/	glo-	glo-
!LO:TX:t=P:problem=kreska pseudotaktowa	!	!	!LO:TX:t=P:problem=kreska pseudotaktowa	!	!	!	!	!	!	!	!
2F\	-i	-i	2A/	glo-	-tris	2d\	in	in	2f/	-ri-	-ri-
=112-	=112-	=112-	=112-	=112-	=112-	=112-	=112-	=112-	=112-	=112-	=112-
*	*	*	*	*	*ij	*	*	*	*	*	*
2E-X\	p(at)-	Pa-	2B-/	-ri-	in	2e-X\	glo-	glo-	2g\	-a	-a
2C/	-ris	-tris	2c/	-a	glo-	2e-\	-ri-	-ri-	2g\	de-	De-
2D/	.	[De-	2.A/	de-	-ri-	2d\	-a	-a	2f\	-i	-i
!LO:TX:t=P:problem=kreska pseudotaktowa	!	!	!	!	!	!	!	!	!	!	!
2F\	.	-i	.	.	.	2c/	de-	De-	2.a\	pa-	Pa-
!	!	!	!LO:TX:t=P:problem=kreska pseudotaktowa	!	!	!	!	!	!	!	!
.	.	.	4B-/	-i	-a	.	.	.	.	.	.
=113-	=113-	=113-	=113-	=113-	=113-	=113-	=113-	=113-	=113-	=113-	=113-
!	!	!	!	!	!	!LO:SIC:s=2e-i	!	!	!	!	!
2C/	.	Pa-	4c/	pa-	De-	2eny\	-i	-i	.	.	.
.	.	.	4B-/	.	-i	.	.	.	4g\	.	.
2E-X\	.	-tris]	4A/	-tris	Pa-	2c/	p(at)-	Pa-	1g\	-tris	-tris.
*	*	*	*	*Xij	*	*	*	*	*	*	*
*	*	*	*custos:A	*	*	*	*	*	*	*	*
.	.	.	4G/	.	-tris.	.	.	.	.	.	.
*	*	*	*	*	*Xij	*	*	*	*	*	*
!	!	!	!LO:LB:g=original	!	!	!	!	!	!	!	!
!LO:TX:t=P:problem=kreska pseudotaktowa	!	!	!LO:TX:t=P:problem=kreska pseudotaktowa	!	!	!	!	!	!	!	!
1D\	A-	A-	1A/	A-	A-	2d/	-ris	-tris.	.	.	.
!	!	!	!	!	!	!	!	!	!LO:SIC:s=2f#i	!	!
.	.	.	.	.	.	2d/	A-	A-	2f\	A-	A-
=114-	=114-	=114-	=114-	=114-	=114-	=114-	=114-	=114-	=114-	=114-	=114-
0GG/;	-men.	-men.	0G/;l	-men	-men.	0d\;<l	-men.	-men.	0g\;<l	-men.	-men.
==	==	==	==	==	==	==	==	==	==	==	==
*-	*-	*-	*-	*-	*-	*-	*-	*-	*-	*-	*-
!!!system-decoration: [(*)]
!!LO:MO:ori
!!!RDF**kern: l = terminal long
!!!RDF**kern: > = above
!!!RDF**kern: < = below
!!LO:MO:end
!!LO:MO:mod
!! !!!RDF**kern: i = editorial accidental
!!LO:MO:end
!!!filter-modern: shed -e "s/TX(.*):t=P:/tx$1:t=P:/LG" | sic -sq | modori -m | autostem -r | tie -s | humtr -p | shed -e "s/-//B" | shed -e "s/^custos:/Xcustos:/I"
!!!ENC: Mateusz Solarz
!!!END: 2022-03-11
!!!ENC: Leszek Kubiak
!!!END: 2022-03-14
!!!ENC-modern: Andrzej Kubiczek
!!!END-modern: 2022-07-19
